images/installation.svg

<svg width="80" height="80" viewBox="0 0 80 80" fill="none" xmlns="http://www.w3.org/2000/svg">
<rect width="80" height="80" fill="#E5E5E5"/>
<path d="M0 0H80V80H0V0Z" fill="#E5E5E5"/>
<path d="M40 80C62.0914 80 80 62.0914 80 40C80 17.9086 62.0914 0 40 0C17.9086 0 0 17.9086 0 40C0 62.0914 17.9086 80 40 80Z" fill="#364274"/>
<path d="M58.236 52.236C58.9688 52.2352 59.6714 51.9437 60.1896 51.4256C60.7077 50.9074 60.9992 50.2048 61 49.472V22.764C60.9992 22.0312 60.7077 21.3286 60.1896 20.8104C59.6714 20.2923 58.9688 20.0008 58.236 20H41H23.764C23.0312 20.0008 22.3286 20.2923 21.8104 20.8104C21.2923 21.3286 21.0008 22.0312 21 22.764V49.512C21.0008 50.2448 21.2923 50.9474 21.8104 51.4656C22.3286 51.9837 23.0312 52.2752 23.764 52.276H40.024V58.536H34.334C34.2378 58.5356 34.1424 58.5543 34.0534 58.5909C33.9644 58.6276 33.8836 58.6815 33.8155 58.7495C33.7475 58.8176 33.6936 58.8984 33.6569 58.9874C33.6203 59.0764 33.6016 59.1718 33.602 59.268C33.602 59.675 33.927 60 34.333 60H47.18C47.2762 60.0004 47.3716 59.9817 47.4606 59.9451C47.5496 59.9084 47.6304 59.8545 47.6985 59.7865C47.7665 59.7184 47.8204 59.6376 47.8571 59.5486C47.8937 59.4596 47.9124 59.3642 47.912 59.268C47.9123 59.1718 47.8935 59.0766 47.8568 58.9877C47.8201 58.8988 47.7662 58.8181 47.6981 58.7502C47.6301 58.6822 47.5493 58.6284 47.4604 58.5918C47.3714 58.5552 47.2762 58.5366 47.18 58.537H41.489V52.236H58.236ZM23.764 21.423H58.195C58.927 21.423 59.537 22.033 59.537 22.764V27.724H22.423V22.764C22.423 21.992 23.033 21.423 23.764 21.423ZM22.423 49.472V29.105H59.537V49.47C59.537 50.202 58.927 50.812 58.195 50.812H23.765C23.032 50.812 22.423 50.202 22.423 49.47V49.472ZM25.065 25.041C24.9404 24.9084 24.8682 24.7349 24.862 24.553C24.8682 24.3711 24.9404 24.1976 25.065 24.065C25.309 23.821 25.797 23.821 26.081 24.065C26.206 24.1975 26.2785 24.371 26.285 24.553C26.2857 24.6439 26.268 24.734 26.233 24.8179C26.1979 24.9018 26.1462 24.9777 26.081 25.041C25.9484 25.1656 25.7749 25.2378 25.593 25.244C25.39 25.284 25.228 25.204 25.065 25.041ZM28.927 25.041C28.8024 24.9084 28.7302 24.7349 28.724 24.553C28.7302 24.3711 28.8024 24.1976 28.927 24.065C29.171 23.821 29.659 23.821 29.943 24.065C30.0676 24.1976 30.1398 24.3711 30.146 24.553C30.1468 24.6438 30.1292 24.7339 30.0943 24.8177C30.0594 24.9016 30.008 24.9775 29.943 25.041C29.8104 25.1656 29.6369 25.2378 29.455 25.244C29.3568 25.2635 29.2551 25.2548 29.1617 25.2188C29.0682 25.1829 28.9869 25.1212 28.927 25.041ZM32.789 25.041C32.664 24.9085 32.5915 24.735 32.585 24.553C32.5915 24.371 32.664 24.1975 32.789 24.065C32.9319 23.9468 33.1115 23.8821 33.297 23.8821C33.4825 23.8821 33.6621 23.9468 33.805 24.065C33.9296 24.1976 34.0018 24.3711 34.008 24.553C34.0018 24.7349 33.9296 24.9084 33.805 25.041C33.6724 25.1656 33.4989 25.2378 33.317 25.244C33.154 25.244 32.911 25.204 32.789 25.041ZM45.837 36.991L39.374 43.415C39.2414 43.5396 39.0679 43.6118 38.886 43.618C38.7041 43.6118 38.5306 43.5396 38.398 43.415L35.675 40.691C35.6075 40.6247 35.5539 40.5457 35.5173 40.4584C35.4807 40.3712 35.4619 40.2776 35.4619 40.183C35.4619 40.0884 35.4807 39.9948 35.5173 39.9076C35.5539 39.8203 35.6075 39.7413 35.675 39.675C35.7413 39.6075 35.8203 39.5539 35.9076 39.5173C35.9948 39.4807 36.0884 39.4619 36.183 39.4619C36.2776 39.4619 36.3712 39.4807 36.4584 39.5173C36.5457 39.5539 36.6247 39.6075 36.691 39.675L38.886 41.911L44.862 35.976C44.9283 35.9085 45.0073 35.8549 45.0946 35.8183C45.1818 35.7817 45.2754 35.7629 45.37 35.7629C45.4646 35.7629 45.5582 35.7817 45.6454 35.8183C45.7327 35.8549 45.8117 35.9085 45.878 35.976C45.9997 36.1196 46.0631 36.3037 46.0557 36.4918C46.0483 36.6799 45.9706 36.8584 45.838 36.992L45.837 36.991Z" fill="white"/>
</svg>

<svg width="80" height="80" fill="none" xmlns="http://www.w3.org/2000/svg"><path fill="#E5E5E5" d="M0 0h80v80H0z"/><path d="M0 0h80v80H0V0z" fill="#E5E5E5"/><path d="M40 80c22.091 0 40-17.909 40-40S62.091 0 40 0 0 17.909 0 40s17.909 40 40 40z" fill="#364274"/><path d="M58.236 52.236A2.767 2.767 0 0061 49.472V22.764A2.767 2.767 0 0058.236 20H23.764A2.767 2.767 0 0021 22.764v26.748a2.767 2.767 0 002.764 2.764h16.26v6.26h-5.69a.73.73 0 00-.732.732c0 .407.325.732.731.732H47.18a.73.73 0 00.518-1.25.728.728 0 00-.518-.213h-5.691v-6.301h16.747zM23.764 21.423h34.431c.732 0 1.342.61 1.342 1.341v4.96H22.423v-4.96c0-.772.61-1.341 1.341-1.341zm-1.341 28.049V29.105h37.114V49.47c0 .732-.61 1.342-1.342 1.342h-34.43c-.733 0-1.342-.61-1.342-1.342v.002zm2.642-24.431a.75.75 0 01-.203-.488.75.75 0 01.203-.488c.244-.244.732-.244 1.016 0a.75.75 0 01.204.488.675.675 0 01-.204.488.75.75 0 01-.488.203c-.203.04-.365-.04-.528-.203zm3.862 0a.75.75 0 01-.203-.488.75.75 0 01.203-.488c.244-.244.732-.244 1.016 0a.75.75 0 01.203.488.673.673 0 01-.203.488.75.75 0 01-.488.203.529.529 0 01-.528-.203zm3.862 0a.75.75 0 01-.204-.488.75.75 0 01.204-.488.797.797 0 011.016 0 .75.75 0 01.203.488.75.75 0 01-.203.488.75.75 0 01-.488.203c-.163 0-.406-.04-.528-.203zm13.048 11.95l-6.463 6.424a.75.75 0 01-.488.203.75.75 0 01-.488-.203l-2.723-2.724a.712.712 0 010-1.016.712.712 0 011.016 0l2.195 2.236 5.976-5.935a.712.712 0 011.016 0 .752.752 0 01-.04 1.016l-.001-.001z" fill="#fff"/></svg>
